X:307
T: HO HO VIVAT HO HO VIVAT
N: F0532
O: Europa, Mitteleuropa, Deutschland
R: Studenten -, Trink - Lied
M: 4/4
L: 1/8
K: G
D2 | G3GG2A2 | B3BB2
c2 | d2B2dcBA | G4z2
D2 | G3GG2A2 | B3BB2
c2 | d2B2dcBA | G4z2
G2 | d3dd2g2 | e4e2
d2 | c3Bc2A2 | d4d2
D2 | G3GG2A2 | B3BB2
c2 | d2B2dcBA | G4z2

@@@ Tune index: 5738
